X:1
T:Title
%%score { 1 | 2 }
L:1/8
Q:1/4=168
M:6/4
K:Bb
V:1 treble nm="Grand Piano"
V:2 bass 
V:1
 [DF]2 [EG]2 [DF]2 [DF]2 [B,D]2 [CE]2 | [DF]2 [EG]2 [EA]2 [DB]4 [FB]2 | c2 c2 =B2 c2 d2 c2 | %3
w: B.~D.~Ackley * * * * *|||
 B2 B2 c2 d6 | [DF]2 [EG]2 [DF]2 [DF]2 [B,D]2 [CE]2 | [DF]2 [EG]2 [EA]2 [DB]4 [FB]2 | %6
w: |||
 c2 d2 c2 c2 A2 c2 | [=EB]2 [EA]2 [EG]2 F6 | [Fd]2 [Fd]2 [Fd]2 [Fd]3 [Fc] [FB]2 | %9
w: |||
 [GB]2 [FA]3 [EG] [EG]2 [DF]4 | B2 B2 B2 [=EB]2 [EA]2 [EB]2 | c2 c2 d2 c6 | %12
w: |||
 [Fd]2 [Fd]2 [Fd]2 [Fd]3 [Ec] [DB]2 | [FB]2 c2 d2 [Ge]2 [Ge]4 | %14
w: ||
[M:27/16] d-<dd-<dd-<ddd/-d/-d/-d/-d/-d-<dc-<c |[M:6/4] [DB]12 |] %16
w: ||
V:2
 [B,,B,]2 [B,,B,]2 [B,,B,]2 [B,,B,]2 [B,,F,]2 [B,,F,]2 | %1
 [B,,B,]2 [B,,B,]2 [B,,B,]2 [B,,F,]4 [D,B,]2 | %2
 [F,A,E]2 [F,A,E]2 [F,_A,D]2 [F,=A,E]2 [F,A,F]2 [F,A,E]2 | [G,B,D]2 [G,B,D]2 [F,A,F]2 [B,F]6 | %4
 [B,,B,]2 [B,,B,]2 [B,,B,]2 [B,,B,]2 [B,,F,]2 [B,,F,]2 | %5
 [B,,B,]2 [B,,B,]2 [B,,B,]2 [B,,F,]4 [D,B,]2 | %6
 [F,A,F]2 [F,B,F]2 [F,A,F]2 [F,A,F]2 [F,CF]2 [F,A,F]2 | [C,G,]2 [C,C]2 [C,B,]2 [F,A,]6 | %8
 [B,,B,]2 [B,,B,]2 [B,,B,]2 [B,,B,]3 [C,A,] [D,B,]2 | [E,E]2 [E,E]3 [E,B,] [B,,B,]2 [B,,B,]4 | %10
 [G,B,D]2 [G,B,D]2 [G,B,D]2 [C,G,]2 [C,G,]2 [C,G,]2 | [F,A,F]2 [F,A,F]2 [F,B,F]2 [F,A,F]6 | %12
 [B,,B,]2 [B,,B,]2 [B,,B,]2 [B,,B,]3 [B,,B,] [B,,F,]2 | %13
 [D,B,]2[K:treble] [F,A,F]2 [B,F]2[K:bass] [E,B,]2 [E,B,]4 | %14
[M:27/16] [F,B,F]-<[F,B,F][F,B,F]-<[F,B,F][F,B,F]-<[F,B,F][F,B,F][F,B,F]/-[F,B,F]/-[F,B,F]/-[F,B,F]/-[F,B,F]/-[F,B,F]-<[F,B,F][F,E]-<[F,E] | %15
[M:6/4] [B,,F,]12 |] %16

